X:1
T:Title
%%score ( 1 2 ) ( 3 4 )
L:1/8
Q:1/4=100
M:4/4
K:Eb
V:1 treble nm="Grand Piano, Soprano"
V:2 treble 
V:3 bass nm="Choir Pad, River of Peace, D S Warner"
V:4 bass 
V:1
 z4 z2 .G2 | E[EG] [GB]6 | .G2 z2 z4 | E[EG] [DF]6 | .G2 z2 z2 .G2 | E[EG] [GB]6 | %6
 E2 [EG]2 [EB][Ec] [EB]2 | [B,D][B,D] [B,E]6 | z2 B6 | z2 e6 | z2 B6 | z2 F6 | z2 B6 | z2 G6 | %14
 z2 F4 z2 | z2 E6- | E4 z4 |] %17
V:2
 EF [EG]2 [EG][EG]E-[EF] | x8 | E-[EF] E2 [EB][Ec] [EB]2 | x8 | E-[EF] E2 [EG][EG]E-[EF] | x8 | %6
 x8 | x8 | [EG][EA] E2 EE E2 | [EG][GB] G2 GG G2 | [Bd][Ac] G2 GG G2 | [FA][EG] D2 DD D2 | %12
 [EG][DA] E2 EE E2 | [GB][FA] E2 EE E2 | [B,D][B,E] D2 DD [DB]2 | [DG]2 z2 C2 B,2- | B,4 z4 |] %17
V:3
 G,A, [E,B,]2 [E,B,][E,B,]B,A, | [E,G,][E,B,] [E,E]6 | B,A, [E,G,]2 [E,G,][E,A,] [E,G,]2 | %3
w: By~Barney~Elliott~Warren * * * * * *|||
 [G,B,][E,B,] [B,,B,]6 | B,A, [E,G,]2 [E,B,][E,B,]B,A, | [E,G,][E,B,] [E,E]6 | %6
w: |||
 [C,=A,]2 [B,,B,]2 [B,,G,][B,,_A,] [B,,G,]2 | [B,,A,][B,,A,] [E,G,]6 | %8
w: ||
 E,[E,F,] [E,G,]2 [E,G,][E,G,] [E,G,]2 | [E,B,][E,B,] [E,B,]2 [E,B,][E,B,] [E,B,]2 | %10
w: ||
 [E,C][E,D] [E,E]2 [E,E][E,E] [E,E]2 | [D,B,][E,B,] [B,,B,]2 [D,B,][F,B,]B,A, | %12
w: ||
 [G,B,][F,A,] [E,G,]2 [E,G,][E,G,] [E,G,]2 | [E,B,][E,B,] [E,B,]2 [E,B,][E,B,] [E,B,]2 | %14
w: ||
 [F,A,][E,G,] B,2 B,B, [B,,F,]2 | [B,,B,]2 z2 A,2 z2 | z8 |] %17
w: |||
V:4
 E,2 z2 z2 E,2 | x8 | E,2 z2 z4 | x8 | E,2 z2 z2 E,2 | x8 | x8 | x8 | x8 | x8 | x8 | x8 | x8 | x8 | %14
 z2 B,,4 z2 | z2 [E,G,]6- | [E,G,]4 z4 |] %17

